X:1
T:Prélude I
T:Prélude VIII
T:for solo guitar
T:Manuel M. Ponce (1882 - 1948)
T:De gitaarclub 2019
C:Manuel M. Ponce (1882 - 1948)
Z:De gitaarclub 2019
%%score ( 1 2 3 )
L:1/8
Q:1/4=60
M:4/4
K:A
V:1 treble-8 nm="Klassieke gitaar" snm="Akoe. Git."
V:2 treble-8 
V:3 treble-8 
V:1
"^Tranquillo, \n\n"!p!"^6II" z cA!2!d !3!B!4!gcA | %1
 !-(!!3!F!0!B!-(!!3!G!0!e !-)!!4!A!1!F!-(!!2!D!3!G | %2
 !-)!!2!E!1!c!4!F!0!D"^5II"!>(! !1!B,!1!E(!3!C!0!A,)!>)! | %3
"^6II" z2 (!1!c/!2!d/)(!4!e/!2!d/) (ce)(dc) | !4!e2 (c/d/)(e/d/) [Ac]2 z2 | %5
!p! z"^3V" e=c!2!=f !3!d!4!b!1!e!-(!!1!c |!<(! !-)!!1!A!3!d!4!B!3!=g!<)! !1!=c!2!A!3!=F!0!B | %7
!>(! !0!=G!0!e!1!A!2!=F !4!D!0!G!1!E!2!=C!>)! | %8
 z2!f! (!2!!1![A=c]/!4!d/)(!0!e/!1!=f/) !0!e2!p! (^c/d/)!-(!!4!e/!-)!!4!^f/ | %9
 !2!e2!f! (!0!B/!1!c/)(!2!d/!4!e/) !2!d2!p! (!0!B/!2!c/)(!4!d/!0!e/) | %10
 !2!d2!f! (!1!^G/!2!A/)(!0!B/!2!c/) !0!B2"^6I" !2![^Gc]2 | %11
!p!"^6II" [Ac]f !-(!!3!!4![Be]f"_cresc." (!-)!!1![cg]!0!e) (!1!!2![Be]!4!f) | %12
"^6II"!<(! [Ac]f"^6IV" (!2![Be]!-(!!4!f) !1!!-)!!4![cg]!0!e"^6VII" ([df]!-(!!4!a)!<)! | %13
"^6IX" !-)!!4![eb]g !4!f!3!d !1!!4![cg]!0!e !1!d z | !>!!0!e2 !>!!1!A2 !>!!0!e2 !>!!1!A2 | %15
"_rit -  -  -  -  -  -  -" !1!d!4!G-G!1!^E !2!d2 !fermata!!1!G2 |!p!"^6II" z cA!2!d !3!B!4!gcA | %17
!<(! !-(!!3!F!0!B!-(!!3!G!0!e!<)! (!-)!!4!A!1!F)!-(!!2!D!3!G | %18
 !-)!!2!E!1!c!4!F!>(!!0!D"^5II" B,E(!3!C!0!A,)!>)! | %19
!f!"^6II" z2!>(! ([Ac]/d/)(e/d/) c2 !4!f2-!>)! | f2 (!1!A/!4!B/)(!1!c/!0!B/) A2"^4II" !1!c2 | %21
 E2 (!1!F/!3!G/)(!4!A/!3!G/)"_dimin. -  -" !1!F2 !4!A2 | %22
 !1!C2"_senza rall.  -  -  -  -  -  -  -  -  -  -  -  -  -  -  -  -  -  -  -  -  -  -  -  -  -  -  -  -  -  -  -  -  -  -" (!1!D/!4!E/)(!1!F/!4!E/) !0!D2 !3!F2 | %23
 z2 (!0!A,/!1!B,/)(!3!C/!1!B,/) !0!A,2 !3!C2 | z2 (!1!A,/!3!B,/)(!4!C/!3!B,/) !1!A,2 !4!C2 | %25
"_damp""^6II" z4{/!2!d} !3!!1![Fc]4 |] %26
V:2
 F,4 z4 | F,2 z2 z4 | x8 | F,4 z4 | F,4- F,2 (!1!F,!3!G,) | !0!A,4 z4 | A,4 z4 | x8 | %8
 A,2 z2 z2 A,2 | !1!!3![^C^G]2 z2 z2 !3![=G,=G]2 | !1!!3![B,F]2 z2 z2 ^E,2 | F,2 z2 E,4 | %12
 F,2 !1!G,2 !0!A,2 !1!B,2 | C2 !0!D2 !2!E2 !2!F2 | !1!C2 !3!D2 !1!C2 !3!D2 | %15
 !0!D z !2!C2 !1!!-(!!3![B,F]2 !fermata!!4!!-)!!3![C^E]2 | F,4 z4 | F,2 z2 z4 | x8 | %19
 F,2 z2 !3!B2 !3!A2 | !2!F,2 z2 z4 | F,2 !2!D2 !4!E2 !2!D2 | x2 B, z !1!C2 !1!B,2 | !1!F,2 x6 | %24
 !1!F,2 x6 | !1!F,4 z4 |] %26
V:3
 x8 | x8 | x8 | x2 !1!A2 A2 z2 | !3![CA]2 x6 | x8 | x8 | x8 | x8 | x8 | x8 | x8 | x8 | %13
 x6 (!4!c!0!B) | !4!A!4!G !4!G!2!F !4!A!4!G !4!G!2!F | x8 | x8 | x8 | x8 | x8 | %20
 !1!G2 !3!F2 !4!^G2 !3!F2 | x8 | x8 | x8 | x8 | x8 |] %26

